src/img/basket.svg

<svg width="24" height="23" viewBox="0 0 24 23" fill="none" xmlns="http://www.w3.org/2000/svg">
<g clip-path="url(#clip0)">
<path d="M8.00039 22.4002C8.88405 22.4002 9.60039 21.6838 9.60039 20.8002C9.60039 19.9165 8.88405 19.2002 8.00039 19.2002C7.11674 19.2002 6.40039 19.9165 6.40039 20.8002C6.40039 21.6838 7.11674 22.4002 8.00039 22.4002Z" fill="#737373"/>
<path d="M19.1996 22.4002C20.0833 22.4002 20.7996 21.6838 20.7996 20.8002C20.7996 19.9165 20.0833 19.2002 19.1996 19.2002C18.316 19.2002 17.5996 19.9165 17.5996 20.8002C17.5996 21.6838 18.316 22.4002 19.1996 22.4002Z" fill="#737373"/>
<path d="M22.4 4.00016H4.656L4 0.640163C3.9626 0.456742 3.86206 0.292245 3.71589 0.175305C3.56971 0.0583653 3.38716 -0.00361159 3.2 0.000162751H0V1.60016H2.544L5.6 16.9602C5.6374 17.1436 5.73794 17.3081 5.88411 17.425C6.03029 17.542 6.21284 17.6039 6.4 17.6002H20.8V16.0002H7.056L6.4 12.8002H20.8C20.9849 12.8047 21.1657 12.745 21.3116 12.6312C21.4574 12.5174 21.5594 12.3566 21.6 12.1762L23.2 4.97616C23.2268 4.85746 23.2262 4.73421 23.1982 4.61579C23.1702 4.49737 23.1155 4.38689 23.0384 4.29278C22.9612 4.19867 22.8636 4.12339 22.753 4.07268C22.6424 4.02198 22.5217 3.99717 22.4 4.00016ZM20.16 11.2002H6.096L4.976 5.60016H21.4L20.16 11.2002Z" fill="#737373"/>
</g>
<defs>
<clipPath id="clip0">
<rect width="24" height="22.4002" fill="white"/>
</clipPath>
</defs>
</svg>

<svg width="24" height="23" fill="none" xmlns="http://www.w3.org/2000/svg"><g clip-path="url(#a)" fill="#737373"><path d="M8 22.4a1.6 1.6 0 1 0 0-3.2 1.6 1.6 0 0 0 0 3.2ZM19.2 22.4a1.6 1.6 0 1 0 0-3.2 1.6 1.6 0 0 0 0 3.2ZM22.4 4H4.656L4 .64A.8.8 0 0 0 3.2 0H0v1.6h2.544L5.6 16.96a.8.8 0 0 0 .8.64h14.4V16H7.056L6.4 12.8h14.4a.8.8 0 0 0 .8-.624l1.6-7.2A.8.8 0 0 0 22.4 4Zm-2.24 7.2H6.096l-1.12-5.6H21.4l-1.24 5.6Z"/></g><defs><clipPath id="a"><path fill="#fff" d="M0 0h24v22.4H0z"/></clipPath></defs></svg>
